X:019
T:Brosna Slide 
B:CRE3.053 (An Bhrosna)
F:file ID: cre.3/019brosna
N:Source's key signature (G) is incorrect. This isn't the 
session "Brosna Slide".
R:slide
Q:180
M:12/8
L:1/8
K:A
f|e3-efe d2d fed|c2A B2A a3 a2f|
e3-efe ded e2d|cBA Bcd A3 A2:|
e|:e2a a2=g e2d Bcd|e2a a2=g e2f def|
e2a a2=g e3-efe|d3-def =g2e fed:|

%%%

